src/lib/packages/icons/src/assets/line/credit-card-convert.svg

<svg xmlns="http://www.w3.org/2000/svg" width="24" height="24" fill="none"><path fill="currentColor" d="M13 17.25H5c-1.577 0-2.25-.673-2.25-2.25V9.75h16.5V10a.75.75 0 0 0 1.5 0V7c0-2.418-1.332-3.75-3.75-3.75H5C2.582 3.25 1.25 4.582 1.25 7v8c0 2.418 1.332 3.75 3.75 3.75h8a.75.75 0 0 0 0-1.5ZM5 4.75h12c1.577 0 2.25.673 2.25 2.25v1.25H2.75V7c0-1.577.673-2.25 2.25-2.25Zm4 8.5a.75.75 0 0 1 0 1.5H6a.75.75 0 0 1 0-1.5h3Zm13.693 5.463a.749.749 0 0 1-.163.817l-1 1a.748.748 0 0 1-1.237-.78H17.5a2.252 2.252 0 0 1-2.25-2.25V17a.75.75 0 0 1 1.5 0v.5c0 .414.336.75.75.75H22a.75.75 0 0 1 .693.463ZM22.75 16v.5a.75.75 0 0 1-1.5 0V16a.75.75 0 0 0-.75-.75H16a.75.75 0 0 1-.53-1.28l1-1a.75.75 0 0 1 1.238.78H20.5A2.252 2.252 0 0 1 22.75 16Z"/></svg>

<svg width="24" height="24" viewBox="0 0 24 24" fill="none" xmlns="http://www.w3.org/2000/svg">
<path d="M13 17.25H5C3.423 17.25 2.75 16.577 2.75 15V9.75H19.25V10C19.25 10.414 19.586 10.75 20 10.75C20.414 10.75 20.75 10.414 20.75 10V7C20.75 4.582 19.418 3.25 17 3.25H5C2.582 3.25 1.25 4.582 1.25 7V15C1.25 17.418 2.582 18.75 5 18.75H13C13.414 18.75 13.75 18.414 13.75 18C13.75 17.586 13.414 17.25 13 17.25ZM5 4.75H17C18.577 4.75 19.25 5.423 19.25 7V8.25H2.75V7C2.75 5.423 3.423 4.75 5 4.75ZM9 13.25C9.414 13.25 9.75 13.586 9.75 14C9.75 14.414 9.414 14.75 9 14.75H6C5.586 14.75 5.25 14.414 5.25 14C5.25 13.586 5.586 13.25 6 13.25H9ZM22.693 18.713C22.809 18.993 22.745 19.316 22.53 19.53L21.53 20.53C21.384 20.676 21.192 20.75 21 20.75C20.808 20.75 20.616 20.677 20.47 20.53C20.259 20.319 20.2 20.013 20.293 19.75H17.5C16.259 19.75 15.25 18.741 15.25 17.5V17C15.25 16.586 15.586 16.25 16 16.25C16.414 16.25 16.75 16.586 16.75 17V17.5C16.75 17.914 17.086 18.25 17.5 18.25H22C22.303 18.25 22.577 18.433 22.693 18.713ZM22.75 16V16.5C22.75 16.914 22.414 17.25 22 17.25C21.586 17.25 21.25 16.914 21.25 16.5V16C21.25 15.586 20.914 15.25 20.5 15.25H16C15.697 15.25 15.423 15.067 15.307 14.787C15.191 14.507 15.255 14.184 15.47 13.97L16.47 12.97C16.763 12.677 17.238 12.677 17.531 12.97C17.742 13.181 17.801 13.487 17.708 13.75H20.5C21.741 13.75 22.75 14.759 22.75 16Z" fill="currentColor"/>
</svg>
